X: 8444
T: Crack In The Flute, The
R: reel
M: 4/4
K: Gmajor
|:f|gdeg dB~B2|gdeg dBAG|DEGA BE~E2|DEGA Bded|
gdeg dB~B2|gdeg dBAG|DEGA ~B3A|GABd e3:|
|:f|gdgb ~a3g|efge dB~B2|gBfB edBG|ABcd edBd|
gdgb ~a3g|efge dB~B2|gB~B2 dBAB|GABd e3:|

